static/img/kroki/8ea2c5a8d2213f29bce15b0fde02b109.svg

<?xml version="1.0" encoding="us-ascii" standalone="no"?><svg xmlns="http://www.w3.org/2000/svg" xmlns:xlink="http://www.w3.org/1999/xlink" contentStyleType="text/css" height="374px" preserveAspectRatio="none" style="width:248px;height:374px;" version="1.1" viewBox="0 0 248 374" width="248px" zoomAndPan="magnify"><defs/><g><!--class kubernetes_replica_set--><g id="elem_kubernetes_replica_set"><rect codeLine="23" fill="#3D176E" height="39.7891" id="kubernetes_replica_set" rx="2.5" ry="2.5" style="stroke:#000D19;stroke-width:0.5;" width="234" x="7" y="328.58"/><ellipse cx="22" cy="348.4745" fill="#ADD1B2" rx="11" ry="11" style="stroke:#181818;stroke-width:1.0;"/><path d="M24.9688,354.1152 Q24.3906,354.412 23.75,354.5527 Q23.1094,354.7089 22.4063,354.7089 Q19.9063,354.7089 18.5781,353.0683 Q17.2656,351.412 17.2656,348.287 Q17.2656,345.162 18.5781,343.5058 Q19.9063,341.8495 22.4063,341.8495 Q23.1094,341.8495 23.75,342.0058 Q24.4063,342.162 24.9688,342.4589 L24.9688,345.1777 Q24.3438,344.5995 23.75,344.3339 Q23.1563,344.0527 22.5313,344.0527 Q21.1875,344.0527 20.5,345.1308 Q19.8125,346.1933 19.8125,348.287 Q19.8125,350.3808 20.5,351.4589 Q21.1875,352.5214 22.5313,352.5214 Q23.1563,352.5214 23.75,352.2558 Q24.3438,351.9745 24.9688,351.3964 L24.9688,354.1152 Z " fill="#000000"/><text fill="#D9B8FF" font-family="Helvetica" font-size="17" lengthAdjust="spacing" textLength="192" x="41" y="354.3598">kubernetes_replica_set</text></g><!--class kubernetes_resource--><g id="elem_kubernetes_resource"><rect codeLine="26" fill="#3D176E" height="39.7891" id="kubernetes_resource" rx="2.5" ry="2.5" style="stroke:#000D19;stroke-width:0.5;" width="216" x="16" y="167.79"/><ellipse cx="31" cy="187.6845" fill="#ADD1B2" rx="11" ry="11" style="stroke:#181818;stroke-width:1.0;"/><path d="M33.9688,193.3252 Q33.3906,193.622 32.75,193.7627 Q32.1094,193.9189 31.4063,193.9189 Q28.9063,193.9189 27.5781,192.2783 Q26.2656,190.622 26.2656,187.497 Q26.2656,184.372 27.5781,182.7158 Q28.9063,181.0595 31.4063,181.0595 Q32.1094,181.0595 32.75,181.2158 Q33.4063,181.372 33.9688,181.6689 L33.9688,184.3877 Q33.3438,183.8095 32.75,183.5439 Q32.1563,183.2627 31.5313,183.2627 Q30.1875,183.2627 29.5,184.3408 Q28.8125,185.4033 28.8125,187.497 Q28.8125,189.5908 29.5,190.6689 Q30.1875,191.7314 31.5313,191.7314 Q32.1563,191.7314 32.75,191.4658 Q33.3438,191.1845 33.9688,190.6064 L33.9688,193.3252 Z " fill="#000000"/><text fill="#D9B8FF" font-family="Helvetica" font-size="17" lengthAdjust="spacing" textLength="174" x="50" y="193.5698">kubernetes_resource</text></g><!--class resource--><g id="elem_resource"><rect codeLine="29" fill="#3D176E" height="39.7891" id="resource" rx="2.5" ry="2.5" style="stroke:#000D19;stroke-width:0.5;" width="113" x="67.5" y="7"/><ellipse cx="82.5" cy="26.8945" fill="#ADD1B2" rx="11" ry="11" style="stroke:#181818;stroke-width:1.0;"/><path d="M85.4688,32.5352 Q84.8906,32.832 84.25,32.9727 Q83.6094,33.1289 82.9063,33.1289 Q80.4063,33.1289 79.0781,31.4883 Q77.7656,29.832 77.7656,26.707 Q77.7656,23.582 79.0781,21.9258 Q80.4063,20.2695 82.9063,20.2695 Q83.6094,20.2695 84.25,20.4258 Q84.9063,20.582 85.4688,20.8789 L85.4688,23.5977 Q84.8438,23.0195 84.25,22.7539 Q83.6563,22.4727 83.0313,22.4727 Q81.6875,22.4727 81,23.5508 Q80.3125,24.6133 80.3125,26.707 Q80.3125,28.8008 81,29.8789 Q81.6875,30.9414 83.0313,30.9414 Q83.6563,30.9414 84.25,30.6758 Q84.8438,30.3945 85.4688,29.8164 L85.4688,32.5352 Z " fill="#000000"/><text fill="#D9B8FF" font-family="Helvetica" font-size="17" lengthAdjust="spacing" textLength="71" x="101.5" y="32.7798">resource</text></g><!--reverse link kubernetes_resource to kubernetes_replica_set--><g id="link_kubernetes_resource_kubernetes_replica_set"><path codeLine="32" d="M124,225.84 C124,256.36 124,297.69 124,328.25 " fill="none" id="kubernetes_resource-backto-kubernetes_replica_set" style="stroke:#FFAF37;stroke-width:2.0;"/><polygon fill="none" points="124,207.84,118,225.84,130,225.84,124,207.84" style="stroke:#FFAF37;stroke-width:2.0;"/></g><!--reverse link resource to kubernetes_resource--><g id="link_resource_kubernetes_resource"><path codeLine="33" d="M124,65.05 C124,95.57 124,136.9 124,167.46 " fill="none" id="resource-backto-kubernetes_resource" style="stroke:#FFAF37;stroke-width:2.0;"/><polygon fill="none" points="124,47.05,118,65.05,130,65.05,124,47.05" style="stroke:#FFAF37;stroke-width:2.0;"/></g><!--SRC=[XPBBQiCm44Nt_Wf1rWQxeNK2tII6qcv2QReFiZMAXMt9ZCODwUFVQzTjKVpATkv1zyoWJ0bWK5PqPYMK2Q3rRAvqnP6NR8DeJh4f3BA5b5mketxuO3HT1NQy1FO8nHkGIdcVUCrKcckmbjquqPQd-H5DhKNtF27Njeb0aqF51RTsGuGggGaS6R5ELbBsoVwZYwK8epiOO0O5u2yI1848rttaQjNitl_4Nhq32zsZxGp1G7DGyKFDMhQ48pbOz2-VT7pcGYXzPBVExALpGWruCTzdN9XJIqjUMBV64Y0OEbSG3xQ2zKh8Q1H-ceAzj3qTo-lcfseWi0U4gcZC3nQ8VNZUrnXXJOqfkF7bR0o-__HzVwB8cwEwnFi6]--></g></svg>

<svg xmlns="http://www.w3.org/2000/svg" width="248" height="374" viewBox="0 0 248 374"><rect width="234" height="39.789" x="7" y="328.58" fill="#3D176E" rx="2.5" ry="2.5" style="stroke:#000d19;stroke-width:.5"/><circle cx="22" cy="348.474" r="11" fill="#ADD1B2" style="stroke:#181818;stroke-width:1"/><path d="M24.969 354.115q-.578.297-1.219.438-.64.156-1.344.156-2.5 0-3.828-1.64-1.312-1.657-1.312-4.782t1.312-4.781q1.328-1.656 3.828-1.656.703 0 1.344.156.656.156 1.219.453v2.719q-.625-.579-1.219-.844-.594-.281-1.219-.281-1.343 0-2.031 1.078-.687 1.062-.687 3.156t.687 3.172q.688 1.062 2.031 1.062.625 0 1.219-.265.594-.281 1.219-.86z"/><text x="41" y="354.36" fill="#D9B8FF" font-family="Helvetica" font-size="17" textLength="192">kubernetes_replica_set</text><rect width="216" height="39.789" x="16" y="167.79" fill="#3D176E" rx="2.5" ry="2.5" style="stroke:#000d19;stroke-width:.5"/><circle cx="31" cy="187.685" r="11" fill="#ADD1B2" style="stroke:#181818;stroke-width:1"/><path d="M33.969 193.325q-.578.297-1.219.438-.64.156-1.344.156-2.5 0-3.828-1.64-1.312-1.657-1.312-4.782t1.312-4.781q1.328-1.656 3.828-1.656.703 0 1.344.156.656.156 1.219.453v2.719q-.625-.578-1.219-.844-.594-.281-1.219-.281-1.343 0-2.031 1.078-.687 1.062-.687 3.156t.687 3.172q.688 1.062 2.031 1.062.625 0 1.219-.265.594-.281 1.219-.86z"/><text x="50" y="193.57" fill="#D9B8FF" font-family="Helvetica" font-size="17" textLength="174">kubernetes_resource</text><rect width="113" height="39.789" x="67.5" y="7" fill="#3D176E" rx="2.5" ry="2.5" style="stroke:#000d19;stroke-width:.5"/><circle cx="82.5" cy="26.895" r="11" fill="#ADD1B2" style="stroke:#181818;stroke-width:1"/><path d="M85.469 32.535q-.578.297-1.219.438-.64.156-1.344.156-2.5 0-3.828-1.64-1.312-1.657-1.312-4.782t1.312-4.781q1.328-1.656 3.828-1.656.703 0 1.344.156.656.156 1.219.453v2.719q-.625-.578-1.219-.844-.594-.281-1.219-.281-1.344 0-2.031 1.078-.687 1.062-.687 3.156T81 29.879q.688 1.062 2.031 1.062.625 0 1.219-.265.594-.281 1.219-.86z"/><text x="101.5" y="32.78" fill="#D9B8FF" font-family="Helvetica" font-size="17" textLength="71">resource</text><path fill="none" d="M124 225.84v102.41m0-120.41-6 18h12zm0-142.79v102.41m0-120.41-6 18h12z" style="stroke:#ffaf37;stroke-width:2"/></svg>
